icons/1_Primary/Wordfence.svg

<svg width="1024" height="1024" viewBox="0 0 1024 1024" fill="none" xmlns="http://www.w3.org/2000/svg">
<g clip-path="url(#clip0_2_3951)">
<path d="M512 1024C794.77 1024 1024 794.77 1024 512C1024 229.23 794.77 0 512 0C229.23 0 0 229.23 0 512C0 794.77 229.23 1024 512 1024Z" fill="#9ABEFF"/>
<path d="M763.32 583.71C746.893 575.516 730.013 568.268 712.76 562V468.1H720L702.46 428.89L684.92 468.1H692.14V554.78C670.102 547.7 647.688 541.854 625 537.27V434.08H632.22L614.68 394.87L597.14 434.08H604.36V533.14C580.66 529.046 554.873 525.953 527 523.86C526 501.16 524.94 480.52 524.94 466.07C524.94 442.34 525.94 429.95 525.94 429.95C526.94 428.95 526.94 427.89 528 426.85C529 423.75 530.06 421.69 530.06 418.6V415.5H539.35V414.5L512.52 355.68L483.63 413.47V414.47H493V417.57C493.067 420.442 493.771 423.263 495.06 425.83C496.06 426.83 496.06 427.89 497.12 428.93C497.12 428.93 498.12 441.31 498.12 465.05C498.12 478.46 498.12 500.13 496.06 522.84C468.2 524.906 442.403 528.003 418.67 532.13V433H425.89L408.35 393.79L390.81 433H398V536.24C375.365 540.965 352.98 546.819 330.93 553.78V467.1H338.15L320.61 427.89L303.1 467.1H310.32V561C287.62 570.29 270.08 577.51 259.76 582.67C246.34 457.81 273.18 349.46 273.18 349.46C400.1 345.33 512.58 278.26 512.58 278.26C512.58 278.26 625 346.37 750.94 350.5C750.94 350.5 778.8 458.85 763.32 583.71ZM713.79 681.71H742.68C746.81 668.3 750.94 653.85 753 640.43C756.354 629.659 758.77 618.617 760.22 607.43V606.43C755.06 601.27 738.55 593.01 713.79 583.73V681.71ZM626.08 680.71H694.19V575.45C674.583 569.256 651.88 563.066 626.08 556.88V680.71ZM532.18 560C536.31 592 544.56 641.52 553.85 680.73H605.44V552.73C581.71 548.6 556.94 545.51 530.11 543.44C530.11 543.46 532.18 557.91 532.18 560ZM419.7 680.7H471.29C479.55 641.49 488.84 592 493 560C493 557.94 495.06 544.52 495.06 543.49C469.803 545.251 444.657 548.352 419.73 552.78L419.7 680.7ZM330.96 680.7H399.06V556.88C372.233 563.073 349.533 569.263 330.96 575.45V680.7ZM261.82 606.4C262.82 614.65 265.95 626.01 269.04 639.4C272.13 652.79 275.23 667.26 279.36 680.68H308.25V582.68C285.55 593 269.04 601.25 261.82 605.38V606.4Z" fill="white"/>
</g>
<defs>
<clipPath id="clip0_2_3951">
<rect width="1024" height="1024" fill="white"/>
</clipPath>
</defs>
</svg>

<svg xmlns="http://www.w3.org/2000/svg" width="1024" height="1024" fill="none">
   <g clip-path="url(#a)">
      <path fill="#9ABEFF" d="M512 1024c282.77 0 512-229.23 512-512S794.77 0 512 0 0 229.23 0 512s229.23 512 512 512Z"/>
      <path fill="#fff" d="M763.32 583.71A481.968 481.968 0 0 0 712.76 562v-93.9H720l-17.54-39.21-17.54 39.21h7.22v86.68A622.678 622.678 0 0 0 625 537.27V434.08h7.22l-17.54-39.21-17.54 39.21h7.22v99.06c-23.7-4.094-49.487-7.187-77.36-9.28-1-22.7-2.06-43.34-2.06-57.79 0-23.73 1-36.12 1-36.12 1-1 1-2.06 2.06-3.1 1-3.1 2.06-5.16 2.06-8.25v-3.1h9.29v-1l-26.83-58.82-28.89 57.79v1H493v3.1a19.416 19.416 0 0 0 2.06 8.26c1 1 1 2.06 2.06 3.1 0 0 1 12.38 1 36.12 0 13.41 0 35.08-2.06 57.79-27.86 2.066-53.657 5.163-77.39 9.29V433h7.22l-17.54-39.21L390.81 433H398v103.24a693.567 693.567 0 0 0-67.07 17.54V467.1h7.22l-17.54-39.21-17.51 39.21h7.22V561c-22.7 9.29-40.24 16.51-50.56 21.67-13.42-124.86 13.42-233.21 13.42-233.21 126.92-4.13 239.4-71.2 239.4-71.2S625 346.37 750.94 350.5c0 0 27.86 108.35 12.38 233.21Zm-49.53 98h28.89c4.13-13.41 8.26-27.86 10.32-41.28a195.539 195.539 0 0 0 7.22-33v-1c-5.16-5.16-21.67-13.42-46.43-22.7v97.98Zm-87.71-1h68.11V575.45c-19.607-6.194-42.31-12.384-68.11-18.57v123.83ZM532.18 560c4.13 32 12.38 81.52 21.67 120.73h51.59v-128c-23.73-4.13-48.5-7.22-75.33-9.29 0 .02 2.07 14.47 2.07 16.56ZM419.7 680.7h51.59C479.55 641.49 488.84 592 493 560c0-2.06 2.06-15.48 2.06-16.51a715.079 715.079 0 0 0-75.33 9.29l-.03 127.92Zm-88.74 0h68.1V556.88c-26.827 6.193-49.527 12.383-68.1 18.57V680.7Zm-69.14-74.3c1 8.25 4.13 19.61 7.22 33s6.19 27.86 10.32 41.28h28.89v-98c-22.7 10.32-39.21 18.57-46.43 22.7v1.02Z"/>
   </g>
   <defs>
      <clipPath id="a">
         <path fill="#fff" d="M0 0h1024v1024H0z"/>
      </clipPath>
   </defs>
</svg>
